images/search.svg

<svg fill="none" height="90" viewBox="0 0 363 90" width="363" xmlns="http://www.w3.org/2000/svg"><path d="m18.8799 89.8667c-4.48 0-8.3378-.4978-11.5733-1.4934-3.15258-.9126-6.13923-1.9496-8.95996-3.1111v-16.3021c1.742216 1.1615 3.69184 2.3644 5.84887 3.6089 2.15702 1.1614 4.52146 2.1155 7.09329 2.8622 2.6548.7466 5.4341 1.12 8.3378 1.12 2.9866 0 5.0607-.4978 6.2222-1.4934 1.2444-1.0785 1.8666-2.3644 1.8666-3.8577 0-1.4104-.6222-2.5304-1.8666-3.36-1.2445-.9126-2.8623-1.6593-4.8534-2.24s-4.1066-1.12-6.3466-1.6178c-1.9911-.4148-3.9822-1.037-5.97331-1.8666-1.99111-.9126-3.7748-2.1156-5.35109-3.6089s-2.862212-3.3185-3.857764-5.4755c-.912586-2.24-1.368886-4.9363-1.368886-8.0889 0-4.0652.78815-7.4252 2.364438-10.08 1.576292-2.7377 3.650352-4.9362 6.222192-6.5955 2.57185-1.6592 5.35112-2.8207 8.33772-3.4844 2.9867-.7467 5.8904-1.0785 8.7111-.9956 5.1437.166 9.2089.7467 12.1955 1.7422 3.0696.9126 5.8489 2.1156 8.3378 3.6089v14.56c-2.8208-1.5763-5.6415-3.0282-8.4622-4.3556-2.7378-1.4103-5.8904-2.1155-9.4578-2.1155-3.2355 0-5.5585.4977-6.9688 1.4933-1.4104.9956-2.1156 2.323-2.1156 3.9822 0 1.5763.4563 2.8207 1.3689 3.7333.9956.9126 2.2815 1.6593 3.8578 2.24 1.5763.4978 3.3185.9956 5.2266 1.4933 2.0741.4978 4.1896 1.12 6.3467 1.8667 2.2399.6637 4.314 1.6593 6.2221 2.9867 1.9912 1.2444 3.5674 3.0281 4.7289 5.351 1.2445 2.24 1.8667 5.2267 1.8667 8.96-.083 5.0607-1.4519 9.1259-4.1067 12.1955-2.6548 2.9867-6.0977 5.1437-10.3288 6.4711-4.1482 1.2444-8.6696 1.8667-13.5644 1.8667zm67.3767 0c-6.3052 0-11.9052-1.286-16.8-3.8578-4.8118-2.6548-8.5866-6.3881-11.3244-11.2-2.6548-4.8948-3.9822-10.7021-3.9822-17.4221 0-10.9511 2.6963-19.4133 8.0889-25.3866 5.4755-6.0562 13.274-9.0844 23.3954-9.0844 6.9689 0 12.5689 1.4934 16.7997 4.48 4.314 2.9867 7.467 7.3422 9.458 13.0666s2.945 12.6933 2.862 20.9066h-47.9107l-1.9911-11.8222h34.5954l-2.7378 5.8489c-.0829-6.72-1.037-11.4489-2.8622-14.1866-1.8251-2.7378-4.8118-4.1067-8.9599-4.1067-2.323 0-4.4385.5808-6.3467 1.7422-1.8251 1.1615-3.277 3.1111-4.3555 5.8489-.9956 2.6548-1.4933 6.3467-1.4933 11.0755 0 5.9733 1.4103 10.5778 4.2311 13.8133 2.9037 3.2355 7.5081 4.8533 13.8132 4.8533 2.323 0 4.6045-.2489 6.8445-.7467 2.3229-.5807 4.48-1.2444 6.471-1.9911 1.991-.7466 3.692-1.4103 5.102-1.9911v15.9289c-2.986 1.2444-6.346 2.24-10.0797 2.9866-3.6504.8296-7.923 1.2445-12.8177 1.2445zm63.1584 0c-3.817 0-7.425-.3734-10.827-1.12-3.318-.6637-6.264-1.7837-8.835-3.36-2.489-1.6593-4.439-3.8578-5.849-6.5956-1.411-2.8207-2.116-6.3051-2.116-10.4532 0-3.8993.788-7.3008 2.365-10.2044 1.659-2.9037 4.148-5.1437 7.466-6.72 3.319-1.5763 7.508-2.3645 12.569-2.3645 2.821 0 5.559.2904 8.213.8712 2.655.5807 5.02 1.3688 7.094 2.3644 2.157.9955 3.857 2.0741 5.102 3.2355l.747 8.96c-1.66-.9956-3.651-1.7837-5.974-2.3644-2.323-.5808-4.812-.8711-7.466-.8711-4.066 0-7.052.6222-8.96 1.8666-1.825 1.1615-2.738 3.0281-2.738 5.6 0 1.5763.456 2.9866 1.369 4.2311.912 1.2444 2.115 2.1985 3.609 2.8622 1.576.6637 3.194.9955 4.853.9955 4.231 0 7.176-.2903 8.836-.8711 1.742-.5807 2.613-1.7422 2.613-3.4844v-23.1466c0-3.8162-1.245-6.554-3.733-8.2133-2.406-1.7422-5.849-2.6133-10.329-2.6133-3.651 0-7.343.6637-11.076 1.9911-3.65 1.2445-6.637 2.7793-8.96 4.6044v-16.4266c2.157-1.3274 5.476-2.5718 9.956-3.7333 4.563-1.1615 9.665-1.7422 15.306-1.7422 1.991 0 4.19.1659 6.596.4978 2.406.3318 4.812.9541 7.218 1.8666 2.406.8297 4.604 2.0741 6.595 3.7334 2.074 1.6592 3.733 3.7748 4.978 6.3466 1.244 2.5718 1.867 5.7659 1.867 9.5822l-.125 29.7421c0 3.5674-1.203 6.4711-3.609 8.7111-2.406 2.157-5.89 3.7333-10.453 4.7288-4.48.9956-9.914 1.4934-16.302 1.4934zm44.459-1.8667v-56.3731c1.162-.9956 3.236-2.1156 6.222-3.36 2.987-1.3274 6.389-2.4889 10.205-3.4844 3.899-1.0785 7.798-1.6178 11.698-1.6178 3.899 0 6.968.2904 9.208.8711 2.24.5808 3.941 1.3274 5.103 2.24v13.5644c-1.411-.3319-3.194-.5807-5.351-.7467-2.157-.1659-4.397-.2489-6.72-.2489-2.323-.0829-4.522-.0829-6.596 0-2.074.083-3.816.2489-5.227.4978v48.6576zm78.046 1.6178c-4.48 0-8.711-.6637-12.693-1.9911s-7.508-3.3185-10.578-5.9733-5.475-6.0148-7.218-10.08c-1.742-4.0652-2.613-8.794-2.613-14.1866 0-5.7244.83-10.7022 2.489-14.9333 1.659-4.314 3.941-7.8814 6.844-10.7022 2.987-2.8207 6.471-4.9362 10.454-6.3466 3.982-1.4104 8.379-2.1155 13.191-2.1155 3.401 0 6.886.3733 10.453 1.1199 3.65.6637 6.844 1.6178 9.582 2.8623v15.9288c-2.904-1.3274-5.766-2.4059-8.587-3.2356-2.737-.9125-5.558-1.3688-8.462-1.3688-5.226 0-9.457 1.3274-12.693 3.9822-3.153 2.5718-4.729 6.8029-4.729 12.6932 0 6.2222 1.411 10.9096 4.231 14.0622 2.821 3.1526 7.508 4.7289 14.062 4.7289 3.07 0 6.015-.5393 8.836-1.6178 2.904-1.0785 5.392-2.1985 7.467-3.36v15.8044c-2.904 1.4933-5.932 2.6548-9.085 3.4844-3.152.8297-6.803 1.2445-10.951 1.2445zm30.483-1.6178v-87.857419h18.667v37.333219l-7.84-4.2311c3.318-2.9037 7.217-5.2682 11.697-7.0933 4.563-1.9082 9.209-2.8622 13.938-2.8622 4.563 0 8.587.7466 12.071 2.2399 3.485 1.4934 6.181 3.9408 8.089 7.3422 1.991 3.3185 2.987 7.923 2.987 13.8133v41.3154h-18.542v-37.4576c0-4.1482-1.038-7.1348-3.112-8.96-1.991-1.9081-4.936-2.8622-8.835-2.8622-1.991 0-3.982.2904-5.973.8711-1.909.4978-3.402 1.1615-4.48 1.9911l-.249 46.4176z" fill="#fff" opacity=".1"/></svg>

<svg width="363" height="90" viewBox="0 0 363 90" fill="none" xmlns="http://www.w3.org/2000/svg">
<path opacity="0.1" d="M18.8799 89.8667C14.3999 89.8667 10.5421 89.3689 7.3066 88.3733C4.15402 87.4607 1.16737 86.4237 -1.65336 85.2622V68.9601C0.088856 70.1216 2.03848 71.3245 4.19551 72.569C6.35253 73.7304 8.71697 74.6845 11.2888 75.4312C13.9436 76.1778 16.7229 76.5512 19.6266 76.5512C22.6132 76.5512 24.6873 76.0534 25.8488 75.0578C27.0932 73.9793 27.7154 72.6934 27.7154 71.2001C27.7154 69.7897 27.0932 68.6697 25.8488 67.8401C24.6043 66.9275 22.9865 66.1808 20.9954 65.6001C19.0043 65.0194 16.8888 64.4801 14.6488 63.9823C12.6577 63.5675 10.6666 62.9453 8.67549 62.1157C6.68438 61.2031 4.90069 60.0001 3.3244 58.5068C1.74811 57.0135 0.462188 55.1883 -0.533364 53.0313C-1.44595 50.7913 -1.90225 48.095 -1.90225 44.9424C-1.90225 40.8772 -1.1141 37.5172 0.462188 34.8624C2.03848 32.1247 4.11254 29.9262 6.68438 28.2669C9.25623 26.6077 12.0355 25.4462 15.0221 24.7825C18.0088 24.0358 20.9125 23.704 23.7332 23.7869C28.8769 23.9529 32.9421 24.5336 35.9287 25.5291C38.9983 26.4417 41.7776 27.6447 44.2665 29.138V43.698C41.4457 42.1217 38.625 40.6698 35.8043 39.3424C33.0665 37.9321 29.9139 37.2269 26.3465 37.2269C23.111 37.2269 20.788 37.7246 19.3777 38.7202C17.9673 39.7158 17.2621 41.0432 17.2621 42.7024C17.2621 44.2787 17.7184 45.5231 18.631 46.4357C19.6266 47.3483 20.9125 48.095 22.4888 48.6757C24.0651 49.1735 25.8073 49.6713 27.7154 50.169C29.7895 50.6668 31.905 51.289 34.0621 52.0357C36.302 52.6994 38.3761 53.695 40.2842 55.0224C42.2754 56.2668 43.8516 58.0505 45.0131 60.3734C46.2576 62.6134 46.8798 65.6001 46.8798 69.3334C46.7968 74.3941 45.4279 78.4593 42.7731 81.5289C40.1183 84.5156 36.6754 86.6726 32.4443 88C28.2961 89.2444 23.7747 89.8667 18.8799 89.8667ZM86.2566 89.8667C79.9514 89.8667 74.3514 88.5807 69.4566 86.0089C64.6448 83.3541 60.87 79.6208 58.1322 74.8089C55.4774 69.9141 54.15 64.1068 54.15 57.3868C54.15 46.4357 56.8463 37.9735 62.2389 32.0002C67.7144 25.944 75.5129 22.9158 85.6343 22.9158C92.6032 22.9158 98.2032 24.4092 102.434 27.3958C106.748 30.3825 109.901 34.738 111.892 40.4624C113.883 46.1868 114.837 53.1557 114.754 61.369H66.8433L64.8522 49.5468H99.4476L96.7098 55.3957C96.6269 48.6757 95.6728 43.9468 93.8476 41.2091C92.0225 38.4713 89.0358 37.1024 84.8877 37.1024C82.5647 37.1024 80.4492 37.6832 78.541 38.8446C76.7159 40.0061 75.264 41.9557 74.1855 44.6935C73.1899 47.3483 72.6922 51.0402 72.6922 55.769C72.6922 61.7423 74.1025 66.3468 76.9233 69.5823C79.827 72.8178 84.4314 74.4356 90.7365 74.4356C93.0595 74.4356 95.341 74.1867 97.581 73.6889C99.9039 73.1082 102.061 72.4445 104.052 71.6978C106.043 70.9512 107.744 70.2875 109.154 69.7067V85.6356C106.168 86.88 102.808 87.8756 99.0743 88.6222C95.4239 89.4518 91.1513 89.8667 86.2566 89.8667ZM149.415 89.8667C145.598 89.8667 141.99 89.4933 138.588 88.7467C135.27 88.083 132.324 86.963 129.753 85.3867C127.264 83.7274 125.314 81.5289 123.904 78.7911C122.493 75.9704 121.788 72.486 121.788 68.3379C121.788 64.4386 122.576 61.0371 124.153 58.1335C125.812 55.2298 128.301 52.9898 131.619 51.4135C134.938 49.8372 139.127 49.049 144.188 49.049C147.009 49.049 149.747 49.3394 152.401 49.9202C155.056 50.5009 157.421 51.289 159.495 52.2846C161.652 53.2801 163.352 54.3587 164.597 55.5201L165.344 64.4801C163.684 63.4845 161.693 62.6964 159.37 62.1157C157.047 61.5349 154.558 61.2446 151.904 61.2446C147.838 61.2446 144.852 61.8668 142.944 63.1112C141.119 64.2727 140.206 66.1393 140.206 68.7112C140.206 70.2875 140.662 71.6978 141.575 72.9423C142.487 74.1867 143.69 75.1408 145.184 75.8045C146.76 76.4682 148.378 76.8 150.037 76.8C154.268 76.8 157.213 76.5097 158.873 75.9289C160.615 75.3482 161.486 74.1867 161.486 72.4445V49.2979C161.486 45.4817 160.241 42.7439 157.753 41.0846C155.347 39.3424 151.904 38.4713 147.424 38.4713C143.773 38.4713 140.081 39.135 136.348 40.4624C132.698 41.7069 129.711 43.2417 127.388 45.0668V28.6402C129.545 27.3128 132.864 26.0684 137.344 24.9069C141.907 23.7454 147.009 23.1647 152.65 23.1647C154.641 23.1647 156.84 23.3306 159.246 23.6625C161.652 23.9943 164.058 24.6166 166.464 25.5291C168.87 26.3588 171.068 27.6032 173.059 29.2625C175.133 30.9217 176.792 33.0373 178.037 35.6091C179.281 38.1809 179.904 41.375 179.904 45.1913L179.779 74.9334C179.779 78.5008 178.576 81.4045 176.17 83.6445C173.764 85.8015 170.28 87.3778 165.717 88.3733C161.237 89.3689 155.803 89.8667 149.415 89.8667ZM193.874 88V31.6269C195.036 30.6313 197.11 29.5113 200.096 28.2669C203.083 26.9395 206.485 25.778 210.301 24.7825C214.2 23.704 218.099 23.1647 221.999 23.1647C225.898 23.1647 228.967 23.4551 231.207 24.0358C233.447 24.6166 235.148 25.3632 236.31 26.2758V39.8402C234.899 39.5083 233.116 39.2595 230.959 39.0935C228.802 38.9276 226.562 38.8446 224.239 38.8446C221.916 38.7617 219.717 38.7617 217.643 38.8446C215.569 38.9276 213.827 39.0935 212.416 39.3424V88H193.874ZM271.92 89.6178C267.44 89.6178 263.209 88.9541 259.227 87.6267C255.245 86.2993 251.719 84.3082 248.649 81.6534C245.579 78.9986 243.174 75.6386 241.431 71.5734C239.689 67.5082 238.818 62.7794 238.818 57.3868C238.818 51.6624 239.648 46.6846 241.307 42.4535C242.966 38.1395 245.248 34.5721 248.151 31.7513C251.138 28.9306 254.622 26.8151 258.605 25.4047C262.587 23.9943 266.984 23.2892 271.796 23.2892C275.197 23.2892 278.682 23.6625 282.249 24.4091C285.899 25.0728 289.093 26.0269 291.831 27.2714V43.2002C288.927 41.8728 286.065 40.7943 283.244 39.9646C280.507 39.0521 277.686 38.5958 274.782 38.5958C269.556 38.5958 265.325 39.9232 262.089 42.578C258.936 45.1498 257.36 49.3809 257.36 55.2712C257.36 61.4934 258.771 66.1808 261.591 69.3334C264.412 72.486 269.099 74.0623 275.653 74.0623C278.723 74.0623 281.668 73.523 284.489 72.4445C287.393 71.366 289.881 70.246 291.956 69.0845V84.8889C289.052 86.3822 286.024 87.5437 282.871 88.3733C279.719 89.203 276.068 89.6178 271.92 89.6178ZM302.403 88V0.142581H321.07V37.4758L313.23 33.2447C316.548 30.341 320.447 27.9765 324.927 26.1514C329.49 24.2432 334.136 23.2892 338.865 23.2892C343.428 23.2892 347.452 24.0358 350.936 25.5291C354.421 27.0225 357.117 29.4699 359.025 32.8713C361.016 36.1898 362.012 40.7943 362.012 46.6846V88H343.47V50.5424C343.47 46.3942 342.432 43.4076 340.358 41.5824C338.367 39.6743 335.422 38.7202 331.523 38.7202C329.532 38.7202 327.541 39.0106 325.55 39.5913C323.641 40.0891 322.148 40.7528 321.07 41.5824L320.821 88H302.403Z" fill="white"/>
</svg>
